X:1
T:Title
%%score { ( 1 4 ) | ( 2 3 ) }
L:1/8
M:4/4
K:F
V:1 treble nm="Grand Piano"
V:4 treble 
V:2 bass 
V:3 bass 
V:1
 z8[Q:1/4=106] | [FAc]2 [FAc]2 [FAc]2 [FAc]2 | [FAc]2 [Ac]2 [Ac]2 z2 | %3
 [EGBc]2 [EGBc]2 [EGBc]2 [GBc]2 |[M:3/4] [FAc]2 [FAc]2 [FAc]2 |[M:1/4] z2 | %6
[M:4/4] [FAc]2 [FAc]2 [FAc]2 [FAc]2 | [FAc]2 [Ac]2 [Ac]2 z2 | [G=Bd]2 [GBd][GBd] [GBd]2 [GBd]2 | %9
 [GBce]2 e2 e2 z2 | f4 c3 A | [CGB]6 E,2 | e4 c3 B | [CFA]6 z2 | [CFA]3 [CFA] [CGB]2 [CGB]2 | %15
[M:9/8] [CAc]2 [FAc]- [FAc] [FBd]2 [DGB]3 |[M:4/4] [FA]2- [=B,FA]2 G3 F |[M:3/4] F6 |] %18
V:2
 z4 z2 C=B, | D2 C2 F,2 G,2 | z2[K:treble] F2 F2 z2 | C2 G,A, z2 E2 |[M:3/4] C2 F,G, A,2 | %5
[M:1/4] C=B, |[M:4/4] D2 C2 F,2 G,2 | z2[K:treble] F2 F2 A,2 | G,2 =B,C D2 G,2 | %9
 z2 [GBc]2 [GBc]2 z2 | [A,CF]4 [A,CF]3[K:bass] [F,CF] | E,2 C,2 D,2 z2 | [G,B,E]4 [G,B,E]3 [G,C] | %13
 F,2 C,2 D,2 E,2 | F,3 F, E,2 E,2 |[M:9/8] F,2 F,- F, B,,2 B,,3 |[M:4/4] C,2 D,2 [E,B,E]3 [F,A,C] | %17
[M:3/4] [F,A,C]6 |] %18
V:3
 x8 | x8 | A,6[K:treble] z2 | z4 B,4 |[M:3/4] x6 |[M:1/4] x2 |[M:4/4] x8 | A,6[K:treble] z2 | x8 | %9
 E6 z2 | x7[K:bass] x | x8 | x8 | x8 | x8 |[M:9/8] x9 |[M:4/4] x8 |[M:3/4] x6 |] %18
V:4
 x8 | x8 | x8 | x8 |[M:3/4] x6 |[M:1/4] x2 |[M:4/4] x8 | x8 | x8 | x8 | x8 | x8 | x8 | x8 | x8 | %15
[M:9/8] x9 |[M:4/4] C2 z2 z4 |[M:3/4] x6 |] %18

